X:0910
M:6/8
L:1/8
Q:3/8=100
K:G
      d>ed  dBc|dBg    dBG      |E>FG AGF|G3     G2       :|
      gag   gec|dBg    dBG      |E>FG AGF|G3     G2       :|

